src/main/resources/icons/AllIcons/actions/menu-paste.svg

<svg xmlns="http://www.w3.org/2000/svg" width="16" height="16" viewBox="0 0 16 16"><rect id="frame" width="16" height="16" fill="none"/><path fill="#737373" fill-rule="evenodd" d="M6 2V1h4v1h3v12H3V2h3zm1 0v1h2V2H7zM5 5v7h6V5H5z"/></svg>

<!-- Copyright 2000-2021 JetBrains s.r.o. Use of this source code is governed by the Apache 2.0 license that can be found in the LICENSE file. -->
<svg width="16" height="16" viewBox="0 0 16 16" fill="none" xmlns="http://www.w3.org/2000/svg">
<g id="menu-paste">
<g id="paste">
<path id="Shape" fill-rule="evenodd" clip-rule="evenodd" d="M6 2V1H10V2H13V14H3V2H6ZM7 2V3H9V2H7ZM5 5V12H11V5H5Z" fill="#6E6E6E"/>
</g>
</g>
</svg>
